X: 16603
T: Handsome Brothers, The
R: reel
M: 4/4
K: Dmajor
|:D2 F/E/D FG Ac|dc de fd ed|=cA GB AG FD|FG AF GB AF|
D2 F/E/D FG Ac|dc de fd ed|=cA GB AG FD|FA GE D4:|
|:fd d/d/d Ad fg|a2 bg af ed|e=c c/c/c Gc ef|(3gfe af gf eg|
(3fgf df af df|a/a/a bg ag ed|e=c ==c/c/c ge =cd|ed ce d4:|

